src/Icon/svgs/camera.svg

<svg xmlns="http://www.w3.org/2000/svg" width="24" height="24" fill="none"><path fill-rule="evenodd" d="M9 3h6l1.83 2H20c1.1 0 2 .9 2 2v12c0 1.1-.9 2-2 2H4c-1.1 0-2-.9-2-2V7c0-1.1.9-2 2-2h3.17L9 3zm6.2 10c0 2.133-1.067 3.2-3.2 3.2S8.8 15.133 8.8 13 9.867 9.8 12 9.8s3.2 1.067 3.2 3.2zM12 18c2.76 0 5-2.24 5-5s-2.24-5-5-5-5 2.24-5 5 2.24 5 5 5z" fill="#1B1C1D"/></svg>

<svg width="24" height="24" viewBox="0 0 24 24" fill="none" xmlns="http://www.w3.org/2000/svg">
<path fill-rule="evenodd" clip-rule="evenodd" d="M9 3H15L16.83 5H20C21.1 5 22 5.9 22 7V19C22 20.1 21.1 21 20 21H4C2.9 21 2 20.1 2 19V7C2 5.9 2.9 5 4 5H7.17L9 3ZM15.2 13C15.2 15.1333 14.1333 16.2 12 16.2C9.86667 16.2 8.8 15.1333 8.8 13C8.8 10.8667 9.86667 9.8 12 9.8C14.1333 9.8 15.2 10.8667 15.2 13ZM12 18C14.76 18 17 15.76 17 13C17 10.24 14.76 8 12 8C9.24 8 7 10.24 7 13C7 15.76 9.24 18 12 18Z" fill="#1B1C1D"/>
</svg>
